astro/public/img/icons/third-party-cookies-ciam-system.svg

<svg height="70" viewBox="0 0 70 70" width="70" xmlns="http://www.w3.org/2000/svg" xmlns:xlink="http://www.w3.org/1999/xlink"><linearGradient id="a" x1="0%" x2="100%" y1="0%" y2="100%"><stop offset="0" stop-color="#a4aebe"/><stop offset="1" stop-color="#2d53f5"/></linearGradient><path d="m26.5 0c.854625 0 1.6982083.046375 2.5351667.12808333 1.05302.10095641 1.8865436.93448001 1.9875 1.9875 1.0126651 10.52301517 9.3410557 18.85233177 19.8639583 19.86616667 1.05302.1009564 1.8865436.93448 1.9875 1.9875.0795.8325417.125875 1.676125.125875 2.53075 0 14.6355459-11.8644541 26.5-26.5 26.5s-26.5-11.8644541-26.5-26.5 11.8644541-26.5 26.5-26.5zm.3754167 4.41666667h-.3754167c-12.1962882 0-22.08333333 9.88704513-22.08333333 22.08333333s9.88704513 22.0833333 22.08333333 22.0833333c12.1907385-.0133877 22.0699456-9.8925948 22.0833333-22.0833333v-.3754167c-11.1153561-1.884683-19.8232336-10.5925605-21.7079166-21.70791663zm-5.89625 24.29166663c1.8294432 0 3.3125 1.4830568 3.3125 3.3125 0 1.8294433-1.4830568 3.3125-3.3125 3.3125-1.8294433 0-3.3125-1.4830567-3.3125-3.3125 0-1.8294432 1.4830567-3.3125 3.3125-3.3125zm11.0416666 0c1.8294433 0 3.3125 1.4830568 3.3125 3.3125 0 1.8294433-1.4830567 3.3125-3.3125 3.3125-1.8294432 0-3.3125-1.4830567-3.3125-3.3125 0-1.8294432 1.4830568-3.3125 3.3125-3.3125zm-11.0416666-11.0416666c1.8294432 0 3.3125 1.4830567 3.3125 3.3125 0 1.8294432-1.4830568 3.3125-3.3125 3.3125-1.8294433 0-3.3125-1.4830568-3.3125-3.3125 0-1.8294433 1.4830567-3.3125 3.3125-3.3125zm26.5-6.625c1.8294432 0 3.3125 1.4830567 3.3125 3.3125 0 1.8294432-1.4830568 3.3125-3.3125 3.3125-1.8294433 0-3.3125-1.4830568-3.3125-3.3125 0-1.8294433 1.4830567-3.3125 3.3125-3.3125zm-6.625-11.0416667c1.8294432 0 3.3125 1.48305677 3.3125 3.3125s-1.4830568 3.3125-3.3125 3.3125c-1.8294433 0-3.3125-1.48305677-3.3125-3.3125s1.4830567-3.3125 3.3125-3.3125z" fill="url(#a)" transform="translate(9 9)"/></svg>

<svg xmlns="http://www.w3.org/2000/svg" width="70" height="70"><linearGradient id="a" x1="0%" x2="100%" y1="0%" y2="100%"><stop offset="0" stop-color="#a4aebe"/><stop offset="1" stop-color="#2d53f5"/></linearGradient><path fill="url(#a)" d="M26.5 0c.855 0 1.698.046 2.535.128a2.208 2.208 0 0 1 1.988 1.988c1.012 10.523 9.34 18.852 19.864 19.866a2.208 2.208 0 0 1 1.987 1.987A26.6 26.6 0 0 1 53 26.5C53 41.136 41.136 53 26.5 53S0 41.136 0 26.5 11.864 0 26.5 0zm.375 4.417H26.5c-12.196 0-22.083 9.887-22.083 22.083S14.304 48.583 26.5 48.583c12.19-.013 22.07-9.892 22.083-22.083v-.375A26.513 26.513 0 0 1 26.875 4.417zM20.98 28.708a3.313 3.313 0 1 1 0 6.625 3.313 3.313 0 0 1 0-6.625zm11.042 0a3.312 3.312 0 1 1 0 6.625 3.312 3.312 0 0 1 0-6.625zM20.979 17.667a3.312 3.312 0 1 1 0 6.625 3.312 3.312 0 0 1 0-6.625zm26.5-6.625a3.312 3.312 0 1 1 0 6.625 3.312 3.312 0 0 1 0-6.625zM40.854 0a3.313 3.313 0 1 1 0 6.625 3.313 3.313 0 0 1 0-6.625z" transform="translate(9 9)"/></svg>
